MonoIcons/scalable/status/printer-error-symbolic.svg

<?xml version="1.0" encoding="UTF-8"?>
<svg height="16px" viewBox="0 0 16 16" width="16px" xmlns="http://www.w3.org/2000/svg">
    <path d="m 5 1 c -0.550781 0 -1 0.449219 -1 1 v 1 h 8 v -1 c 0 -0.550781 -0.449219 -1 -1 -1 z m -3 3 c -1.109375 0 -2 0.890625 -2 2 v 4 c 0 1.109375 0.890625 2 2 2 v 1 c 0 1.089844 0.910156 2 2 2 h 4.019531 c -0.445312 -0.589844 -0.757812 -1.273438 -0.90625 -2 h -3.113281 v -3 h 3.4375 c 0.789062 -1.816406 2.582031 -2.992188 4.5625 -3 c 1.574219 0 3.054688 0.742188 4 2 v -3 c 0 -1.109375 -0.890625 -2 -2 -2 z m 0 0" fill="#2e3436"/>
    <path class="error" d="m 12 8 c -2.210938 0 -4 1.789062 -4 4 s 1.789062 4 4 4 s 4 -1.789062 4 -4 s -1.789062 -4 -4 -4 z m -2 3 h 4 c 0.554688 0 1 0.445312 1 1 s -0.445312 1 -1 1 h -4 c -0.554688 0 -1 -0.445312 -1 -1 s 0.445312 -1 1 -1 z m 0 0" fill="#e01b24"/>
</svg>

<svg width="16" height="16" viewBox="0 0 16 16" fill="none" xmlns="http://www.w3.org/2000/svg">
<g clip-path="url(#clip0_231_1399)">
<path d="M4.99995 1.00024C4.44917 1.00024 3.99996 1.44946 3.99996 2.00023V3.00022H11.9999V2.00023C11.9999 1.44946 11.5507 1.00024 10.9999 1.00024H4.99995ZM1.99998 4.00021C0.890616 4.00021 0 4.89083 0 6.00019V10.0002C0 11.1095 0.890616 12.0001 1.99998 12.0001V13.0001C1.99998 14.09 2.91013 15.0001 3.99996 15.0001H8.01945C7.57414 14.4103 7.26164 13.7267 7.11321 13.0001H3.99996V10.0002H7.43742C8.22648 8.18376 10.0194 7.00799 11.9999 7.00018C13.5741 7.00018 15.0545 7.74236 15.9998 9.00016V6.00019C15.9998 4.89083 15.1092 4.00021 13.9999 4.00021H1.99998Z" fill="#2E3436"/>
<path d="M11.9997 8.00024C9.7888 8.00024 7.99976 9.78929 7.99976 12.0002C7.99976 14.2111 9.7888 16.0002 11.9997 16.0002C14.2106 16.0002 15.9997 14.2111 15.9997 12.0002C15.9997 9.78929 14.2106 8.00024 11.9997 8.00024ZM9.99973 11.0002H13.9997C14.5544 11.0002 14.9997 11.4455 14.9997 12.0002C14.9997 12.5549 14.5544 13.0002 13.9997 13.0002H9.99973C9.44505 13.0002 8.99975 12.5549 8.99975 12.0002C8.99975 11.4455 9.44505 11.0002 9.99973 11.0002Z" fill="#0000FF"/>
</g>
<defs>
<clipPath id="clip0_231_1399">
<rect width="15.9998" height="15.9998" fill="white"/>
</clipPath>
</defs>
</svg>
